img/behance.svg

<svg xmlns="http://www.w3.org/2000/svg" xmlns:xlink="http://www.w3.org/1999/xlink" preserveAspectRatio="xMidYMid" width="100" height="100" viewBox="0 0 100 100">
  <defs>
    <style>
      .cls-1 {
        fill: #0fc;
        fill-rule: evenodd;
      }
    </style>
  </defs>
  <path d="M42.501,47.002 C43.959,46.170 49.375,43.880 49.375,35.555 C49.375,26.085 42.501,20.985 32.191,20.985 C21.880,20.985 5.008,20.985 5.008,20.985 L5.008,77.183 C5.008,77.183 17.818,77.183 30.316,77.183 C46.251,77.183 51.145,68.753 51.145,60.219 C51.145,49.292 42.501,47.002 42.501,47.002 ZM17.923,30.768 L28.441,30.768 C34.795,30.768 38.127,31.912 38.127,36.804 C38.127,41.695 34.482,43.152 29.900,43.152 L17.923,43.152 L17.923,30.768 ZM29.900,67.400 L17.923,67.400 L17.923,52.414 L30.108,52.414 C36.253,52.414 39.273,54.808 39.273,59.387 C39.273,64.070 37.294,67.400 29.900,67.400 ZM94.992,56.993 C94.992,43.464 87.910,35.347 74.996,35.347 C63.643,35.347 54.999,42.423 54.999,56.993 C54.999,70.626 63.435,78.015 75.308,78.015 C85.098,78.015 92.701,72.708 94.471,64.902 L83.640,64.902 C83.640,64.902 81.765,69.481 75.620,69.481 C70.309,69.481 65.726,66.047 65.622,59.491 L94.992,59.491 L94.992,56.993 ZM65.831,52.518 C66.351,47.939 69.267,43.985 74.996,43.985 C80.307,43.985 84.057,47.731 84.057,52.518 L65.831,52.518 ZM87.493,28.478 L63.122,28.478 L63.122,22.858 L87.493,22.858 L87.493,28.478 Z" class="cls-1"/>
</svg>

<svg id="402d1a99-301c-470a-94ac-20ee581e9cf7" data-name="Layer 1" xmlns="http://www.w3.org/2000/svg" viewBox="0 0 89.98 57.03"><defs><style>.\33 c1cfa67-cd06-4886-81b2-4ae82ddcf22d{fill:currentColor;}</style></defs><title>behance</title><path class="3c1cfa67-cd06-4886-81b2-4ae82ddcf22d" d="M42.5,47c1.46-.83,6.87-3.12,6.87-11.45C49.38,26.08,42.5,21,32.19,21H5v56.2H30.32c15.93,0,20.83-8.43,20.83-17C51.15,49.29,42.5,47,42.5,47ZM17.92,30.77H28.44c6.35,0,9.69,1.14,9.69,6s-3.65,6.35-8.23,6.35h-12V30.77Zm12,36.63h-12v-15H30.11c6.14,0,9.16,2.39,9.16,7S37.29,67.4,29.9,67.4ZM95,57c0-13.53-7.08-21.65-20-21.65-11.35,0-20,7.08-20,21.65,0,13.63,8.44,21,20.31,21C85.1,78,92.7,72.71,94.47,64.9H83.64s-1.87,4.58-8,4.58c-5.31,0-9.89-3.43-10-10H95V57ZM65.83,52.52C66.35,47.94,69.27,44,75,44c5.31,0,9.06,3.75,9.06,8.53H65.83Zm21.66-24H63.12V22.86H87.49v5.62Z" transform="translate(-5.01 -20.99)"/></svg>
